icons/glyphs/glyph-ms-excel.svg

<?xml version="1.0" encoding="UTF-8" standalone="no"?><svg height="16" viewBox="0 0 4.2333333 4.2333333" width="16" xmlns="http://www.w3.org/2000/svg"><sodipodi:namedview/><metadata><rdf:RDF><cc:Work><dc:format>image/svg+xml</dc:format><dc:type/><dc:title/></cc:Work></rdf:RDF></metadata><path d="m8.5585938 0c-2.852179.50797304-5.70669.99358844-8.5585938 1.4921875 0 4.3386588-.00192416 8.6790855 0 13.0195315 2.83717.496813 5.6782577.971072 8.5097656 1.488281h1.1621094v-1.488281c1.862264 0 3.344465-.0024 5.207031.0059.316135-.01485.669829.008.941406-.185547.217701-.332957.160446-.74916.179688-1.125-.02748-3.6651264.0121-7.3309386-.01953-10.9960935.03898-.4241904-.292605-.7557716-.716797-.7128906-1.988927-.030236-3.601083.00123-5.591797-.00977v-1.4883179zm1.0917968 2.2109375h5.2109374c.21642 0 .390625.1742066.390625.390625v10.6718755c0 .216418-.174207.390624-.390625.390624h-5.2109374v-.853609h1.3242184v-1.501953h-1.3242184v-1.230469h1.3242184v-1.4980467h-1.3242184v-1.2304687h1.3242184v-1.5019532h-1.3242184v-1.2265624h1.3242184v-1.5019532h-1.3242184zm2.5234374.8788125v1.53125h1.957031v-1.53125zm-5.3496092 1.863375c-.4845826.9949747-.9735196 1.9878227-1.4667969 2.9785156.4998996 1.0178295 1.0120272 2.0290452 1.5136719 3.0468754-.4376724-.025232-.8751812-.053228-1.3125-.083985-.308984-.757992-.6864617-1.4907501-.9082032-2.2832029-.2470412.7379263-.5994199 1.4346719-.8828125 2.1582029-.3981169-.005518-.795388-.022629-1.1933593-.039062.467038-.9141567.916859-1.8353648 1.3984374-2.7441409-.4088765-.9361122-.8576244-1.8545693-1.2792968-2.7851562.3998615-.0236977.7993574-.0465477 1.1992187-.0683594.2707427.7107356.5672385 1.4117136.7910157 2.140625.2397731-.7723873.599011-1.4990048.90625-2.2460937.4107668-.0290646.8218633-.0543007 1.234375-.0742188zm5.3496092.8670937v1.5292969h1.957031v-1.5292969zm0 2.7285156v1.5292967h1.957031v-1.5292967zm0 2.7324217v1.529297h1.957031v-1.529297z" fill="#d0d0d0" stroke-width=".148838" transform="scale(.26458333)"/></svg>

<?xml version="1.0" encoding="UTF-8" standalone="no"?>
<!-- Created with Inkscape (http://www.inkscape.org/) -->

<svg
     xmlns:dc="http://purl.org/dc/elements/1.1/"
     xmlns:cc="http://creativecommons.org/ns#"
     xmlns:rdf="http://www.w3.org/1999/02/22-rdf-syntax-ns#"
     xmlns:svg="http://www.w3.org/2000/svg"
     xmlns="http://www.w3.org/2000/svg"
     xmlns:sodipodi="http://sodipodi.sourceforge.net/DTD/sodipodi-0.dtd"
     xmlns:inkscape="http://www.inkscape.org/namespaces/inkscape"
     width="16"
     height="16"
     viewBox="0 0 4.2333333 4.2333333"
     version="1.1"
     id="svg8"
     inkscape:version="0.92+devel (572d1a9d8b, 2017-07-17, custom)"
     sodipodi:docname="glyph-ms-excel.svg">
    <defs
         id="defs2" />
    <sodipodi:namedview
         id="base"
         pagecolor="#002466"
         bordercolor="#ffffff"
         borderopacity="0.38039216"
         inkscape:pageopacity="1"
         inkscape:pageshadow="2"
         inkscape:zoom="38.636385"
         inkscape:cx="8"
         inkscape:cy="7.9999999"
         inkscape:document-units="px"
         inkscape:current-layer="svg8"
         inkscape:document-rotation="0"
         showgrid="false"
         inkscape:showpageshadow="false"
         borderlayer="true"
         inkscape:window-width="1920"
         inkscape:window-height="1051"
         inkscape:window-x="0"
         inkscape:window-y="0"
         inkscape:window-maximized="1"
         units="px"
         inkscape:object-paths="true" />
    <metadata
         id="metadata5">
        <rdf:RDF>
            <cc:Work
                 rdf:about="">
                <dc:format>image/svg+xml</dc:format>
                <dc:type
                     rdf:resource="http://purl.org/dc/dcmitype/StillImage" />
                <dc:title></dc:title>
            </cc:Work>
        </rdf:RDF>
    </metadata>
    <path
         style="fill:#d0d0d0;stroke-width:0.14883845"
         d="M 8.5585938,0 C 5.7064148,0.50797304 2.8519038,0.99358844 0,1.4921875 0,5.8308463 -0.00192416,10.171273 0,14.511719 2.83717,15.008532 5.6782577,15.482791 8.5097656,16 H 9.671875 v -1.488281 c 1.862264,0 3.344465,-0.0024 5.207031,0.0059 0.316135,-0.01485 0.669829,0.008 0.941406,-0.185547 0.217701,-0.332957 0.160446,-0.74916 0.179688,-1.125 -0.02748,-3.6651264 0.0121,-7.3309386 -0.01953,-10.9960935 0.03898,-0.4241904 -0.292605,-0.7557716 -0.716797,-0.7128906 -1.988927,-0.030236 -3.601083,0.00123 -5.591797,-0.00977 V 0 Z m 1.0917968,2.2109375 h 5.2109374 c 0.21642,0 0.390625,0.1742066 0.390625,0.390625 V 13.273438 c 0,0.216418 -0.174207,0.390624 -0.390625,0.390624 H 9.6503906 V 12.810453 H 10.974609 V 11.3085 H 9.6503906 V 10.078031 H 10.974609 V 8.5799843 H 9.6503906 V 7.3495156 H 10.974609 V 5.8475624 H 9.6503906 V 4.621 H 10.974609 V 3.1190468 H 9.6503906 Z M 12.173828,3.08975 V 4.621 h 1.957031 V 3.08975 Z M 6.8242188,4.953125 C 6.3396362,5.9480997 5.8506992,6.9409477 5.3574219,7.9316406 5.8573215,8.9494701 6.3694491,9.9606858 6.8710938,10.978516 6.4334214,10.953284 5.9959126,10.925288 5.5585938,10.894531 5.2496098,10.136539 4.8721321,9.4037809 4.6503906,8.6113281 4.4033494,9.3492544 4.0509707,10.046 3.7675781,10.769531 3.3694612,10.764013 2.9721901,10.746902 2.5742188,10.730469 3.0412568,9.8163123 3.4910778,8.8951042 3.9726562,7.9863281 3.5637797,7.0502159 3.1150318,6.1317588 2.6933594,5.2011719 3.0932209,5.1774742 3.4927168,5.1546242 3.8925781,5.1328125 4.1633208,5.8435481 4.4598166,6.5445261 4.6835938,7.2734375 4.9233669,6.5010502 5.2826048,5.7744327 5.5898438,5.0273438 6.0006106,4.9982792 6.4117071,4.9730431 6.8242188,4.953125 Z m 5.3496092,0.8670937 v 1.5292969 h 1.957031 V 5.8202187 Z m 0,2.7285156 v 1.5292967 h 1.957031 V 8.5487343 Z m 0,2.7324217 v 1.529297 h 1.957031 v -1.529297 z"
         transform="scale(0.26458333)"
         id="path2"
         inkscape:connector-curvature="0"
         sodipodi:nodetypes="cccccccccccccccssssccccccccccccccccccccccccccccccccccccccccccccccccccc" />
</svg>
